X:219
T:score294
L:1/8
Q:1/4=120
M:3/4
I:linebreak $
K:G
 d2 GA Bc | d2 G2 G2 | e2 cd ef | g2 G2 G2 | c2 dc BA | B2 cB AG | A2 BA GF | G6 |] %8
